X:WFS 13-12 09
T:Kafoozalum
M:2/4
R:swung
K:G
[P:A] d2dc | Bcd2 | ABcB | ABc2 | d2{e}dc | Bcd2 | GAB2{G} | A2G2 :|
[P:B] BGDG | BGB2 | cAFA | cAc2 | BGDG | BGB2 | GAB2{G} | A2G2 :|

